X:7
T:\`A la claire fontaine
G:Kazimodal
R:Dañs Plin
C:Traditionnel
Q:C2=160
P:H2
M:4/4
K:G
P:H
|: "G"G2 GB BA "F"BA | "G"G2 GB "F"BA "G"B2 :|
|: "Em"B2 BA GB "Bm"dB | d2 "C"dB GB "D"A2 | "G"G2 GB "F"BA/2G/2 "G"BG | \
	B2 BA/2G/2 "F"BA "G"G2 :|
